!!!COM:	Beethoven
!!!OTL:	Beethoven String Quartet Op.18 Quartet 1 1st Mvmnt.
**kern	**kern	**kern	**kern
*part4	*part3	*part2	*part1
*staff4	*staff3	*staff2	*staff1
*I"Violoncello	*I"Viola	*I"Violin	*I"Violin
*I'Vc.	*I'Vla.	*I'Vln.	*I'Vln.
!!pagebreak:original
!!pagebreak:original
!!pagebreak:original
!!pagebreak:original
*clefF4	*clefC3	*clefG2	*clefG2
*k[b-]	*k[b-]	*k[b-]	*k[b-]
*M3/4	*M3/4	*M3/4	*M3/4
=1-	=1-	=1-	=1-
[4F	(<4F	[4f	(<4f
(>8FL]	8FL)	(<8fL]	8fL)
16GL	16GL	16gL	16gL
16FJJ)	16FJJ)	16fJJ)	16fJJ)
8EL	8EL	8eL	8eL
8FJ	8FJ	8fJ	8fJ
=2	=2	=2	=2
4C	4C	4c	4c
4r	4r	4r	4r
4r	4r	4r	4r
=3	=3	=3	=3
[4F	(<4F	[4f	(<4.f
(>8FL]	8FL)	(<8fL]	.
16GL	16GL	16gL	16gLL
16FJJ)	16FJJ)	16fJJ)	16fJJ)
8EL	8EL	8eL	8eL
8FJ	8FJ	8fJ	8fJ
=4	=4	=4	=4
4D	4D	4d	4d
4r	4r	4r	4r
4r	4r	4r	4r
=5	=5	=5	=5
(>2.D	(>2.d	[2.b-	(>4.ff
.	.	.	16ggLL
.	.	.	16ffJJ)
.	.	.	8eeL
.	.	.	8ffJ
=6	=6	=6	=6
2.E)	2.c)	(>2b-]	(>2gg
.	.	4g)	4b-)
=7	=7	=7	=7
(>4F	4c)	(<2f	(>2a
4D	4d	.	.
4BB-)	4G)	8.b-L	8.ddL
.	.	16gJk)	16b-Jk)
=8	=8	=8	=8
!!linebreak:original
!!linebreak:original
!!linebreak:original
!!linebreak:original
2.C	(>8cL	(<2f	(<2a
.	8BnJ	.	.
.	8cL	.	.
.	8BJ	.	.
.	4c)	4e)	4g)
=9	=9	=9	=9
[4F	(<4F	[4f	(<4.f
(>8FL]	8FL)	(<8fL]	.
16GL	16GL	16gL	16gLL
16FJJ)	16FJJ)	16fJJ)	16fJJ)
8EL	8EL	8eL	8eL
8FJ	8FJ	8fJ	8fJ
=10	=10	=10	=10
4C	4C	4c	4c
4r	4r	2r	4r
4r	4r	.	4r
=11	=11	=11	=11
[4F	(<4F	[4f	(<4.f
(>8FL]	8FL)	(<8fL]	.
16GL	16GL	16gL	16gLL
16FJJ)	16FJJ)	16fJJ)	16fJJ)
8EL	8EL	8eL	8eL
8FJ	8FJ	8fJ	8fJ
=12	=12	=12	=12
4D	4D	4d	4d
4r	4r	2r	4r
4r	4r	.	4r
=13	=13	=13	=13
4%3r	4%3r	4%3r	(>4.ff
.	.	.	16ggLL
.	.	.	16ffJJ)
.	.	.	8eeL
.	.	.	8ffJ
=14	=14	=14	=14
2.c#X	2.b-	2.ee	(>2aa
.	.	.	4gg)
=15	=15	=15	=15
!!linebreak:original
!!linebreak:original
!!linebreak:original
!!linebreak:original
4%3r	4%3r	4%3r	(>4.gg
.	.	.	16aaLL
.	.	.	16ggJJ)
.	.	.	8ff#XL
.	.	.	8ggJ
=16	=16	=16	=16
2.f#X	2.ee-X	2.cc	(>2bb-
.	.	.	4aa)
=17	=17	=17	=17
4%3r	4%3r	4%3r	(>4.aa
.	.	.	16bb-LL
.	.	.	16aaJJ)
.	.	.	8ggL
.	.	.	8aaJ
=18	=18	=18	=18
4.B-	(>4.f#X	(>4.ee-X	(>4.ccc
8B-	8g	8dd	8bb-
8B-L	8aL	8ccL	8aaL
8B-J	8b-J)	8b-J)	8ggJ)
=19	=19	=19	=19
2c	2cc	(>2a	(>2ff
4C	4e	8ccL	8aaL
.	.	8b-J)	8ggJ)
=20	=20	=20	=20
4F	4f	4a	4ff
4r	4r	4r	4r
4r	4r	4r	4r
=21	=21	=21	=21
4%3r	4%3r	[4c	4%3r
.	.	(<8cL]	.
.	.	16dL	.
.	.	16cJJ)	.
.	.	8BnL	.
.	.	8cJ	.
=22	=22	=22	=22
!!pagebreak:original
!!pagebreak:original
!!pagebreak:original
!!pagebreak:original
2.Bn	2.a	(<2e-X	(>4.ff
.	.	.	16ggLL
.	.	.	16ffJJ)
.	.	4d)	8eeL
.	.	.	8ffJ
=23	=23	=23	=23
4%3r	4%3r	[4d	4%3r
.	.	(<8dL]	.
.	.	16e-XL	.
.	.	16dJJ)	.
.	.	8c#XL	.
.	.	8dJ	.
=24	=24	=24	=24
2.C#X	2.B-	(<2f	(>4.gg
.	.	.	16aaLL
.	.	.	16ggJJ)
.	.	4en)	8ff#XL
.	.	.	8ggJ
=25	=25	=25	=25
4%3r	4%3r	[4g	4%3r
.	.	(<8gL]	.
.	.	16aL	.
.	.	16gJJ)	.
.	.	8f#XL	.
.	.	8gJ	.
=26	=26	=26	=26
2F	2e-X	(>2b-	(>4.ccc
.	.	.	16dddLL
.	.	.	16cccJJ)
4FF	4e-	4a)	8bbnL
.	.	.	8cccJ
=27	=27	=27	=27
!!linebreak:original
!!linebreak:original
!!linebreak:original
!!linebreak:original
2B-	(>2f#X	(>2cc	(>4.ddd
.	.	.	16eee-XLL
.	.	.	16dddJJ)
4BB-	4g)	4b-)	8ccc#XL
.	.	.	8dddJ
=28	=28	=28	=28
4AA	4B-	(<8aL	4eeen
.	.	8gJ)	.
4AA	4B-	(<8aL	4eee
.	.	8gJ)	.
4AA	4B-	(<8aL	4eee
.	.	8gJ)	.
=29	=29	=29	=29
4FF	8AL	8fL	4fff
.	8cJ	8AJ 8f	.
4r	8cL	8AL 8f	4r
.	8cJ	8AJ 8f	.
4r	8cL	8AL 8f	4r
.	8cJ	8AJ 8f	.
=30	=30	=30	=30
(<4.C	8cL	8AL 8f	4r
.	8cJ	8AJ 8f	.
.	8cL	8AL 8f	8r
16DLL	8cJ	8AJ 8f	8a
16CJJ)	.	.	.
8BBnL	8cL	8AL 8f	4a
8CJ	8cJ	8AJ 8f	.
=31	=31	=31	=31
4CC	8cL	8GL 8e	(>4.cc
.	8cJ	8GJ 8e	.
4r	8cL	8GL 8e	.
.	8cJ	8GJ 8e	8b-)
4r	8cL	8GL 8e	8gL
.	8cJ	8GJ 8e	8fJ
=32	=32	=32	=32
!!linebreak:original
!!linebreak:original
!!linebreak:original
!!linebreak:original
(<4.C	8cL	8GL 8e	4e
.	8cJ	8GJ 8e	.
.	8cL	8GL 8e	8r
16DLL	8cJ	8GJ 8e	8b-
16CJJ)	.	.	.
8BBnL	8cL	8GL 8e	4b-
8CJ	8cJ	8GJ 8e	.
=33	=33	=33	=33
4CC	8cL	8AL 8f	(>4.dd
.	8cJ	8AJ 8f	.
4r	8cL	8AL 8f	.
.	8cJ	8AJ 8f	8cc)
4r	8cL	8AL 8f	8aL
.	8cJ	8AJ 8f	8gJ
=34	=34	=34	=34
(<4.C	8cL	8AL 8f	4f
.	8cJ	8AJ 8f	.
.	8cL	8AL 8f	8r
16DLL	8cJ	8AJ 8f	8ff
16CJJ)	.	.	.
8BBnL	8cL	8AL 8f	4ff
8CJ	8cJ	8AJ 8f	.
=35	=35	=35	=35
4CC	8eL	8B-L 8g	(>4.aa
.	8eJ	8B-J 8g	.
4r	8eL	8B-L 8g	.
.	8eJ	8B-J 8g	8gg)
4r	8eL	8B-L 8g	8ggL
.	8eJ	8B-J 8g	8ffJ
=36	=36	=36	=36
!!pagebreak:original
!!pagebreak:original
!!pagebreak:original
!!pagebreak:original
(<4.C	8eL	8B-L 8g	(>8ffL
.	8eJ	8B-J 8g	8eeJ)
.	8eL	8B-L 8g	8eeL
16DLL	8eJ	8B-J 8g	8ddJ
16CJJ)	.	.	.
8BBnL	8eL	8B-L 8g	8ccL
8CJ	8eJ	8B-J 8g	8b-J
=37	=37	=37	=37
4C#X	8eL	8AL 8g	[2.a
.	8eJ	8AJ 8g	.
4AA	8c#XL	8AL 8g	.
.	8c#J	8AJ 8g	.
4C#	8eL	8AL 8g	.
.	8eJ	8AJ 8g	.
=38	=38	=38	=38
4D	8dL	8AL 8f	8aL]
.	8dJ	8AJ 8f	(>16bnL
.	.	.	16cc#XJJ
4r	8dL	8AL 8f	16ddLL
.	.	.	16ee
.	8dJ	8AJ 8f	16ff
.	.	.	16eeJJ
4r	8dL	8AL 8f	16ddLL
.	.	.	16ccn
.	8dJ	8AJ 8f	16b
.	.	.	16aJJ)
=39	=39	=39	=39
4BBn	8dL	8GL 8f	[2.g
.	8dJ	8GJ 8f	.
4GG	8BnL	8GL 8f	.
.	8BJ	8GJ 8f	.
4BB	8dL	8GL 8f	.
.	8dJ	8GJ 8f	.
=40	=40	=40	=40
!!linebreak:original
!!linebreak:original
!!linebreak:original
!!linebreak:original
4C	8cL	8GL 8e-X	8gL]
.	8cJ	8GJ 8e-	(>16aL
.	.	.	16bnJJ
4r	8cL	8GL 8e-	16ccLL
.	.	.	16b
.	8cJ	8GJ 8e-	16cc
.	.	.	16bJJ
4r	8cL	8GL 8e-	16ccLL
.	.	.	16b
.	8cJ	8GJ 8e-	16cc
.	.	.	16bJJ)
=41	=41	=41	=41
[2.AA-X	4.E-X	(<2.c 2.e-X	2.cc
.	16FLL	.	.
.	16E-JJ	.	.
.	8DL	.	.
.	8E-J	.	.
=42	=42	=42	=42
2.AA-]	2.E-X	4c 4e-X)	(>4.cc
.	.	4c	.
.	.	.	16dd-XLL
.	.	.	16ccJJ)
.	.	4c	8b-L
.	.	.	8ccJ
=43	=43	=43	=43
[2.BB-	(<4.E-X	[2.d-X	(>4.ee-X
.	16FLL	.	8dd-X
.	16E-JJ)	.	.
.	8DL	.	8b-L
.	8E-J	.	8a-XJ)
=44	=44	=44	=44
2.BB-]	2.E-X	4d-]	4g
.	.	4d-X	8r
.	.	.	(>16ee-XLL
.	.	.	16dd-XJJ)
.	.	4d-	8ccL
.	.	.	8dd-J
=45	=45	=45	=45
!!linebreak:original
!!linebreak:original
!!linebreak:original
!!linebreak:original
[2.C	(<4.E-X	[2.e-X	(>4.ff
.	16FLL	.	8ee-X)
.	16E-JJ)	.	.
.	8DL	.	8ccL
.	8E-J	.	8b-J
=46	=46	=46	=46
4C]	4E-X	4e-]	4a
4C	4a	4g-X	8r
.	.	.	(>16ffLL
.	.	.	16ee-XJJ)
4C	4a	4g-	8ddL
.	.	.	8ee-J
=47	=47	=47	=47
2.D	2.Bn	2.a-X	2.ff
=48	=48	=48	=48
4E-X	4c	4g	4ee-X
4F	4f	4a-X	4dd
4F#X	4e-X	4an	4cc
=49	=49	=49	=49
4G	4d	4g	16bnLL
.	.	.	16g
.	.	.	16a
.	.	.	16bJJ
4r	8r	8r	16ccLL
.	.	.	16dd
.	8Bn	8d	16een
.	.	.	16ff#XJJ
4r	8BL	8dL	16ggLL
.	.	.	16ff#
.	8cJ	8e-XJ	16gg
.	.	.	16ff#JJ
=50	=50	=50	=50
!!pagebreak:original
!!pagebreak:original
!!pagebreak:original
!!pagebreak:original
16GLL	4Bn	4d	4gg
16GG	.	.	.
16AA	.	.	.
16BBnJJ	.	.	.
16CLL	8r	8r	8r
16D	.	.	.
16E	8g	8dd	8bbn
16F#XJJ	.	.	.
16GLL	8gL	8ddL	8bbL
16F#	.	.	.
16G	8gJ	8ee-XJ	8cccJ
16F#JJ	.	.	.
=51	=51	=51	=51
4G	4g	4dd	16bbnLL
.	.	.	16g
.	.	.	16a
.	.	.	16bnJJ
4r	8r	8r	16ccLL
.	.	.	16dd
.	8Bn	8d	16ee
.	.	.	16ff#XJJ
4r	8BL	8dL	16ggLL
.	.	.	16ff#
.	8cJ	8e-XJ	16gg
.	.	.	16ff#JJ
=52	=52	=52	=52
16GLL	4Bn	4d	4gg
16GG	.	.	.
16AA	.	.	.
16BBnJJ	.	.	.
16CLL	8r	8r	8r
16D	.	.	.
16E	8g	8dd	8bbn
16F#XJJ	.	.	.
16GLL	8gL	8ddL	8bbL
16F#	.	.	.
16G	8gJ	8ee-XJ	8cccJ
16F#JJ	.	.	.
=53	=53	=53	=53
!!linebreak:original
!!linebreak:original
!!linebreak:original
!!linebreak:original
4G	4g	4dd	16bbnLL
.	.	.	16G
.	.	.	16A
.	.	.	16BnJJ
8r	8r	8r	16cLL
.	.	.	16d
8G	8Bn	8dd	16e
.	.	.	16f#XJJ
8GL	8BL	8ddL	16gLL
.	.	.	16f#
8CJ	8cJ	8ee-XJ	16g
.	.	.	16f#JJ
=54	=54	=54	=54
16GLL	16BnLL	16ddLL	16gLL
16GG	16G	16G	16g
16AA	16A	16A	16a
16BBnJJ	16BJJ	16BnJJ	16bnJJ
16CLL	16cLL	16cLL	16ccLL
16D	16d	16d	16dd
16E	16e	16en	16ee
16F#XJJ	16f#XJJ	16f#XJJ	16ff#XJJ
16GLL	16gLL	16gLL	16ggLL
16F#	16f#	16f#	16ff#
16G	16g	16g	16gg
16F#JJ	16f#JJ	16f#JJ	16ff#JJ
=55	=55	=55	=55
4G	4g	4g	8gg
.	.	.	4gg
4r	2r	4r	.
.	.	.	4gg
4r	.	4r	.
.	.	.	(>8gg
=56	=56	=56	=56
4%3r	4%3r	4%3r	8gg#X)
.	.	.	4gg#
.	.	.	4gg#
.	.	.	(>8gg#
=57	=57	=57	=57
!!linebreak:original
!!linebreak:original
!!linebreak:original
!!linebreak:original
4%3r	4%3r	4%3r	8aaL)
.	.	.	(>8aaJ
.	.	.	8ffL)
.	.	.	(>8ffJ
.	.	.	8ddL)
.	.	.	(>8ddJ
=58	=58	=58	=58
4%3r	4r	4r	8bnL)
.	.	.	(>8bJ
.	4r	4r	8gL)
.	.	.	(>8gJ
.	8fL	8gL	8bL)
.	(>8fJ	[8gJ	(>8bJ
=59	=59	=59	=59
4%3r	8eL)	8gL]	8ccL)
.	(>8eJ	(>8gJ	(>8ccJ
.	8dL)	8bnL)	8ddL)
.	(>8dJ	(>8bJ	(>8ddJ
.	8cL)	8ccL)	8eeL)
.	(>8cJ	(>8ccJ	(>8eeJ
=60	=60	=60	=60
4%3r	2Bn)	4ee	4gg
.	.	4dd)	4ff)
.	8eL	4r	4r
.	(>8eJ	.	.
=61	=61	=61	=61
4%3r	8fL)	4%3r	4%3r
.	(>8fJ	.	.
.	8dL)	.	.
.	(>8dJ	.	.
.	8BnL)	.	.
.	(<8BJ	.	.
=62	=62	=62	=62
4%3r	8G#XL)	4r	4r
.	(>8G#J	.	.
.	8eL)	4r	4r
.	(>8eJ	.	.
.	8dL)	(>4bn	(>4gg#X
.	(>8dJ	.	.
=63	=63	=63	=63
!!pagebreak:original
!!pagebreak:original
!!pagebreak:original
!!pagebreak:original
4%3r	8cL)	4ee	4aa
.	(>8cJ	.	.
.	8AL)	4e	4ccc
.	(>8AJ	.	.
.	8dL)	[4cc)	4ff#X)
.	(>8dJ	.	.
=64	=64	=64	=64
4r	8GL)	(>4cc]	(>4aa
.	(>8GJ	.	.
8r	8g)	8bn)	8gg)
(>8F#X	8r	8r	8r
8GL	4r	4r	4r
8G#XJ	.	.	.
=65	=65	=65	=65
8AL)	4%3r	4%3r	4%3r
(>8AJ	.	.	.
8FnL)	.	.	.
(>8FJ	.	.	.
8DL)	.	.	.
(>8DJ	.	.	.
=66	=66	=66	=66
8BBnL)	4r	4r	4r
(<8BBJ	.	.	.
8GGL)	4r	4r	4r
(<8GGJ	.	.	.
8BBL)	8GL	8dL	8ffL
(<8BBJ	(>8GJ	(<8dJ	(>8ffJ
=67	=67	=67	=67
8CL)	8GL)	8eL)	8eeL)
(>8CJ	(>8gJ	(>8ccJ	(>8eeJ
8DL)	8fL)	8bnL)	8ddL)
(>8DJ	(>8fJ	(>8bJ	(>8ddJ
8EL)	8eL)	8gL)	8ccL)
8EJ	8eJ	8gJ	8ccJ
=68	=68	=68	=68
4.F	4.d	4.a-X	(>4cc
.	.	.	8bn)
8r	8r	8r	8r
4r	4r	8gL	4r
.	.	(<8gJ	.
=69	=69	=69	=69
!!linebreak:original
!!linebreak:original
!!linebreak:original
!!linebreak:original
4%3r	4r	8a-XL)	4r
.	.	(<8a-J	.
.	8a-XL	8fL)	4r
.	(>8a-J	(<8fJ	.
.	8fL)	8dL)	[4aa-X
.	(>8fJ	(<8dJ	.
=70	=70	=70	=70
4%3r	8dL)	8BnL)	(>4aa-]
.	(>8dJ	(<8BJ	.
.	8e-XL)	8c)	4gg
.	(>8cJ	4ee-X	.
.	8F#XL)	.	4ccc)
.	(<8F#J	8ee-	.
=71	=71	=71	=71
4%3r	8GL)	(>2ee-X	(>2ccc
.	(>8GJ	.	.
.	8gL)	.	.
.	(>8gJ	.	.
.	8GL)	8.ffL	8.dddL
.	8GJ	.	.
.	.	16ddJk)	16bbnJk)
=72	=72	=72	=72
(>4.g	8cL	8ccL	4ccc
.	8CJ	8GJ 8en	.
.	8CL	8GL 8e	4r
16aLL	8CJ	8GJ 8e	.
16gJJ)	.	.	.
8f#XL	8CL	8GL 8e	4r
8gJ	8CJ	8GJ 8e	.
=73	=73	=73	=73
!!linebreak:original
!!linebreak:original
!!linebreak:original
!!linebreak:original
2.g	8CL	8GL 8e	(>4.ee
.	8CJ	8GJ 8e	.
.	8CL	8GL 8e	.
.	8CJ	8GJ 8e	16ffLL
.	.	.	16eeJJ)
.	8CL	8GL 8e	8ddL
.	8CJ	8GJ 8e	8ccJ
=74	=74	=74	=74
(>4.g	8DL	8GL 8f	4bn
.	8DJ	8GJ 8f	.
.	8DL	8GL 8f	4r
16aLL	8DJ	8GJ 8f	.
16gJJ)	.	.	.
8f#XL	8DL	8GL 8f	4r
8gJ	8DJ	8GJ 8f	.
=75	=75	=75	=75
2.g	8DL 8G	8BnL	(>4.ff
.	8DJ 8G	8BJ	.
.	8DL 8G	8BL	.
.	8DJ 8G	8BJ	16ggLL
.	.	.	16ffJJ)
.	8DL 8G	8BL	8eeL
.	8DJ 8G	8BJ	8ddJ
=76	=76	=76	=76
(>4.g	8EL 8G	8B-XL	4cc#X
.	8EJ 8G	8B-J	.
.	8EL 8G	8B-L	4r
16aLL	8EJ 8G	8B-J	.
16gJJ)	.	.	.
8f#XL	8EL 8G	8B-L	4r
8gJ	8EJ 8G	8B-J	.
=77	=77	=77	=77
!!pagebreak:original
!!pagebreak:original
!!pagebreak:original
!!pagebreak:original
2.b-	8EL	8GL 8g	[4bb-
.	8EJ	8GJ 8g	.
.	8EL	8GL 8g	8bb-L]
.	8EJ	8GJ 8g	16aaL
.	.	.	16ggJJ
.	8EL	8GL 8g	16ffLL
.	.	.	16ee
.	8EJ	8GJ 8g	16dd
.	.	.	16cc#XJJ
=78	=78	=78	=78
4a	4F	4A	16ddLL
.	.	.	16a
.	.	.	16bn
.	.	.	16cc#XJJ
4F	4d	4f 4a	16ddLL
.	.	.	16ee
.	.	.	16ff
.	.	.	16eeJJ
4r	4r	4r	16ddLL
.	.	.	16a
.	.	.	16b
.	.	.	16cc#JJ
=79	=79	=79	=79
4%3r	4%3r	4%3r	16ddLL
.	.	.	16ee
.	.	.	16ff
.	.	.	16eeJJ
.	.	.	16ddLL
.	.	.	16a
.	.	.	16bn
.	.	.	16cc#XJJ
.	.	.	16ddLL
.	.	.	16ee
.	.	.	16ff
.	.	.	16eeJJ
=80	=80	=80	=80
!!linebreak:original
!!linebreak:original
!!linebreak:original
!!linebreak:original
4r	4r	4r	16ddLL
.	.	.	16a
.	.	.	16bn
.	.	.	16cc#XJJ
4r	4r	4r	16ddLL
.	.	.	16ee
.	.	.	16ff
.	.	.	16eeJJ
16r	16r	16r	16ddLL
16AALL	16ALL	16ALL	16a
16BBn	16Bn	16Bn	16b
16C#XJJ	16c#XJJ	16c#XJJ	16cc#JJ
=81	=81	=81	=81
16DLL	16dLL	16dLL	16ddLL
16E	16e	16e	16ee
16F	16f	16f	16ff
16GJJ	16gJJ	16gJJ	16ggJJ
16ALL	16aLL	16aLL	16aaLL
16G	16g	16g	16gg
16F	16f	16f	16ff
16EJJ	16eJJ	16eJJ	16eeJJ
16DLL	16dLL	16dLL	16ddLL
16Cn	16cn	16cn	16ccn
16BBn	16Bn	16Bn	16bn
16AAJJ	16AJJ	16AJJ	16aJJ
=82	=82	=82	=82
4.GG	4.G	4.G	2.g
(>16AALL	(>16ALL	(<16ALL	.
16BBnJJ	16BnJJ	16BnJJ	.
16CLL	16cLL	16cLL	.
16D	16d	16d	.
16E	16e	16e	.
16F#XJJ)	16f#XJJ)	16f#XJJ)	.
=83	=83	=83	=83
!!linebreak:original
!!linebreak:original
!!linebreak:original
!!linebreak:original
8GL	8gL	8gL	2.dd
8GJ	8fnJ	8bnJ	.
8GL	8fL	8bL	.
8GJ	8fJ	8bJ	.
8GL	8fL	8bL	.
8GJ	8fJ	8bJ	.
=84	=84	=84	=84
4C	4e	4cc	4cc
4r	(<4.E	4.G	(<4.c
4r	.	.	.
.	8D)	8G	8Bn)
=85	=85	=85	=85
4%3r	(<8DL	(<8GL	(<8BnL
.	8BnJ)	8dJ)	8fJ)
.	(<8BL	(<8dL	(<8fL
.	8cJ)	8cJ)	8eJ)
.	(<8cL	8cL	(<8eL
.	8FJ)	8cJ	8aJ)
=86	=86	=86	=86
4%3r	(<8FL	8cL	(<8aL
.	8EJ)	8cJ	8gJ)
.	(<8EL	(<8cL	(<8gL
.	8eJ)	8gJ)	8ccJ)
.	(>8eL	(<8gL	(>8ccL
.	8dJ)	8fJ)	8bnJ)
=87	=87	=87	=87
4%3r	(>8dL	(<8fL	(>8bnL
.	8BnJ)	8dJ)	8ffJ)
.	4B	4d	4ff
.	4r	4r	4r
=88	=88	=88	=88
4%3r	4%3r	4%3r	4%3r
=89	=89	=89	=89
2.c	2.g	2.cc	(>4.ee
.	.	.	16ffLL
.	.	.	16eeJJ)
.	.	.	8ddL
.	.	.	8eeJ
=90	=90	=90	=90
!!pagebreak:original
!!pagebreak:original
!!pagebreak:original
!!pagebreak:original
[2.F#X	[2.d	[2.cc	[2.aa
=91	=91	=91	=91
(>4F#]	(>4d]	4cc]	(>4aa]
4G)	4e)	4cc	4gg)
4GG	4d	4f	4bn
=92	=92	=92	=92
4C	4c	4e	4cc
4r	(>4.e	(<4.g	(>4.cc
4r	.	.	.
.	8d)	8f)	8bn)
=93	=93	=93	=93
4%3r	(>8dL	(<8fL	(>8bnL
.	8BnJ)	8dJ)	8ffJ)
.	(<8BL	(<8dL	(>8ffL
.	8cJ)	8eJ)	8eeJ)
.	(>8cL	(<8eL	(>8eeL
.	8fJ)	8ccJ)	8aaJ)
=94	=94	=94	=94
4%3r	(>8fL	8ccL	(>8aaL
.	8eJ)	8ccJ	8ggJ)
.	(>8eL	(>8ccL	(>8ggL
.	8eeJ)	8ggJ)	8cccJ)
.	(>8eeL	(>8ggL	(>8cccL
.	8ddJ)	8ffJ)	8bbnJ)
=95	=95	=95	=95
4%3r	(>8ddL	(>8ffL	(>8bbnL
.	8bnJ)	8ddJ)	8fffJ)
.	4b	4dd	4fff
.	4r	4r	4r
=96	=96	=96	=96
4%3r	4%3r	4%3r	4%3r
=97	=97	=97	=97
2.C	2.c	2.G	2.c 2.e-X
=98	=98	=98	=98
2.AA-X	2.A-X	2.A-X	2.c 2.e-X
=99	=99	=99	=99
!!linebreak:original
!!linebreak:original
!!linebreak:original
!!linebreak:original
2FF#X	2F#X	2An	2c 2e-X
4FFn	4Fn	4A	4c 4e-
=100	=100	=100	=100
4EE	4E	4A	4c 4en
4DD	4A	4d	4f
4GG	4F	4Bn	4d
=101	=101	=101	=101
(<4.C	8EL	8cL	4c
.	8cJ	8GJ 8e	.
.	8cL	8GL 8e	4r
16DLL	8cJ	8GJ 8e	.
16CJJ)	.	.	.
8BBnL	8cL	8GL 8e	4r
8CJ	8cJ	8GJ 8e	.
=102	=102	=102	=102
4CC	8cL	8GL 8e	4r
.	8cJ	8GJ 8e	.
4r	8cL	8GL 8e	4ee
.	8cJ	8GJ 8e	.
4r	8cL	8GL 8e	4ee
.	8cJ	8GJ 8e	.
=103	=103	=103	=103
(<4.C	8dL	8GL 8f	(>4gg
.	8dJ	8GJ 8f	.
.	8dL	8GL 8f	4ff)
16DLL	8dJ	8GJ 8f	.
16CJJ)	.	.	.
8BBnL	8dL	8GL 8f	4r
8CJ	8dJ	8GJ 8f	.
=104	=104	=104	=104
!!linebreak:original
!!linebreak:original
!!linebreak:original
!!linebreak:original
4CC	8dL	8GL 8f	4r
.	8dJ	8GJ 8f	.
4r	8dL	8GL 8f	4bbn
.	8dJ	8GJ 8f	.
4r	8dL	8GL 8f	4bb
.	8dJ	8GJ 8f	.
=105	=105	=105	=105
(<16DLL	8cL	8GL 8e	(>8cccL
16C	.	.	.
16BBn	8cJ	8GJ 8e	8eeeJ)
16CJJ)	.	.	.
(<16DLL	8cL	8GL 8e	4gg
16C	.	.	.
16BB	8cJ	8GJ 8e	.
16CJJ)	.	.	.
(<16DLL	8cL	8GL 8e	4r
16C	.	.	.
16BB	8cJ	8GJ 8e	.
16CJJ)	.	.	.
=106	=106	=106	=106
4CC	8cL	8GL 8e	(>16ffLL
.	.	.	16ee
.	8cJ	8GJ 8e	16dd
.	.	.	16eeJJ)
4r	8cL	8GL 8e	(>16ffLL
.	.	.	16ee
.	8cJ	8GJ 8e	16dd
.	.	.	16eeJJ)
4r	8cL	8GL 8e	(>16ffLL
.	.	.	16ee
.	8cJ	8GJ 8e	16dd
.	.	.	16eeJJ)
=107	=107	=107	=107
!!pagebreak:original
!!pagebreak:original
!!pagebreak:original
!!pagebreak:original
(<16DLL	8dL	8GL 8f	(>4gg
16C	.	.	.
16BBn	8dJ	8GJ 8f	.
16CJJ)	.	.	.
(<16DLL	8dL	8GL 8f	4ff)
16C	.	.	.
16BB	8dJ	8GJ 8f	.
16CJJ)	.	.	.
(<16DLL	8dL	8GL 8f	4r
16C	.	.	.
16BB	8dJ	8GJ 8f	.
16CJJ)	.	.	.
=108	=108	=108	=108
4CC	8dL	8GL 8f	(>16cccLL
.	.	.	16bbn
.	8dJ	8GJ 8f	16aa
.	.	.	16bbJJ)
4r	8dL	8GL 8f	(>16cccLL
.	.	.	16bb
.	8dJ	8GJ 8f	16aa
.	.	.	16bbJJ)
4r	8dL	8GL 8f	(>16cccLL
.	.	.	16bb
.	8dJ	8GJ 8f	16aa
.	.	.	16bbJJ)
=109	=109	=109	=109
!!linebreak:original
!!linebreak:original
!!linebreak:original
!!linebreak:original
4C	4c	4G 4e	16cccLL
.	.	.	16eee
.	.	.	16ddd
.	.	.	16cccJJ
4C	4G 4e	4G 4e 4cc	16bbnLL
.	.	.	16aa
.	.	.	16gg
.	.	.	16ffJJ
4r	4r	4r	16eeLL
.	.	.	16ccc
.	.	.	16bb
.	.	.	16aaJJ
=110	=110	=110	=110
4%3r	4%3r	4%3r	16ggLL
.	.	.	16ff
.	.	.	16ee
.	.	.	16ddJJ
.	.	.	16ccLL
.	.	.	16gg
.	.	.	16ff
.	.	.	16eeJJ
.	.	.	16ddLL
.	.	.	16cc
.	.	.	16bn
.	.	.	16aJJ
=111	=111	=111	=111
4r	4r	4r	16gLL
.	.	.	16ee
.	.	.	16dd
.	.	.	16ccJJ
4r	4r	4r	16bnLL
.	.	.	16a
.	.	.	16g
.	.	.	16fJJ
16ELL	16ELL	16eLL	16eLL
16c	16c	16cc	16cc
16Bn	16Bn	16bn	16b
16AJJ	16AJJ	16aJJ	16aJJ
=112	=112	=112	=112
!!linebreak:original
!!linebreak:original
!!linebreak:original
!!linebreak:original
16GLL	16GLL	16gLL	16gLL
16F	16F	16f	16f
16E	16E	16e	16e
16DJJ	16DJJ	16dJJ	16dJJ
(<16CLL	16CLL	(<16cLL	(<16cLL
16BBn	(<16Bn	16Bn	16Bn
16C	16c	16c	16c
16BBJJ	16BJJ	16BJJ	16BJJ
16CLL	16cLL	16cLL	16cLL
16BB	16B	16B	16B
16C	16c	16c	16c
16BBJJ)	16BJJ)	16BJJ)	16BJJ)
=113	=113	=113	=113
4C	4c	4c	4c
4CC	4E	4G	4c
4CC	4E	4G	4c
=114	=114	=114	=114
4CC	4E	4G	4c
4r	4r	4r	4r
4r	4r	4r	4r
=115:|!	=115:|!	=115:|!	=115:|!
4AA	4A	4A 4a	16aaLL
.	.	.	16eee
.	.	.	16ddd
.	.	.	16ccc#XJJ
4r	4r	4r	16bbnLL
.	.	.	16aa
.	.	.	16gg#X
.	.	.	16ff#XJJ
4r	4r	4r	16eeLL
.	.	.	16aa
.	.	.	16gg#
.	.	.	16ff#JJ
=116	=116	=116	=116
!!pagebreak:original
!!pagebreak:original
!!pagebreak:original
!!pagebreak:original
4%3r	4%3r	4%3r	16eeLL
.	.	.	16dd
.	.	.	16cc#X
.	.	.	16bnJJ
.	.	.	16aLL
.	.	.	16ee
.	.	.	16dd
.	.	.	16cc#JJ
.	.	.	16bLL
.	.	.	16a
.	.	.	16g#X
.	.	.	16f#XJJ
=117	=117	=117	=117
16ELL	16r	16r	16eLL
16A	16aLL	16aLL	16a
16G#X	16g#X	16g#X	16g#X
16F#XJJ	16f#XJJ	16f#XJJ	16f#XJJ
16ELL	16eLL	16eLL	16eLL
16D	16d	16d	16d
16C#X	16c#X	16c#X	16c#X
16BBnJJ	16BnJJ	16BnJJ	16BnJJ
(<16AALL	(<16ALL	(<16ALL	(<16ALL
16GG#X	16G#X	16G#X	16G#X
16AA	16A	16A	16A
16GG#JJ)	16G#JJ)	16G#JJ)	16G#JJ)
=118	=118	=118	=118
4AA	4A	4A	4A
4AA	4A	4A	4A
4AA	4A	4A	4A
=119	=119	=119	=119
(<4.BBn	(<4.B-	[2.B-	[2.B-
16CLL	16cLL	.	.
16BBJJ)	16B-JJ)	.	.
8AAL	8AL	.	.
8BBJ	8B-J	.	.
=120	=120	=120	=120
!!linebreak:original
!!linebreak:original
!!linebreak:original
!!linebreak:original
2.FF	2.F	4B-]	16B-LL]
.	.	.	16dd
.	.	.	16ff
.	.	.	16bb-JJ
.	.	4B-	16dddLL
.	.	.	16bb-
.	.	.	16ddd
.	.	.	16bb-JJ
.	.	4B-	16dddLL
.	.	.	16bb-
.	.	.	16ddd
.	.	.	16bb-JJ
=121	=121	=121	=121
(<4.BBn	(<4.B-	[2.B-	4eee-X
.	.	.	4r
16CLL	16cLL	.	.
16BBJJ)	16B-JJ)	.	.
8AAL	8AL	.	4r
8BBJ	8B-J	.	.
=122	=122	=122	=122
2.GG	2.G	4B-]	16r
.	.	.	16ee-XLL
.	.	.	16gg
.	.	.	16bb-JJ
.	.	4B-	16eee-XLL
.	.	.	16bb-
.	.	.	16eee-
.	.	.	16bb-JJ
.	.	4B-	16eee-LL
.	.	.	16bb-
.	.	.	16eee-
.	.	.	16bb-JJ
=123	=123	=123	=123
!!linebreak:original
!!linebreak:original
!!linebreak:original
!!linebreak:original
(>2.G	[2.e-X	(>4.b-	4eee-X
.	.	.	4r
.	.	16ccLL	.
.	.	16b-JJ)	.
.	.	8aL	4r
.	.	8b-J	.
=124	=124	=124	=124
2.A)	(>2e-]	(>2cc	4%3r
.	4c)	4e-X)	.
=125	=125	=125	=125
4%3r	4%3r	4%3r	(>2ccc
.	.	.	4ee-X)
=126	=126	=126	=126
(>2.B-	[2.g	(>4.dd	4%3r
.	.	16eeLL	.
.	.	16ddJJ)	.
.	.	8cc#XL	.
.	.	8ddJ	.
=127	=127	=127	=127
2.c#X)	(>2g]	(>2ee	4%3r
.	4e)	4g)	.
=128	=128	=128	=128
4%3r	4%3r	4%3r	(>2eee
.	.	.	4gg)
=129	=129	=129	=129
(>4.B-	4%3r	4%3r	4%3r
16cLL	.	.	.
16B-JJ)	.	.	.
8AL	.	.	.
8B-J	.	.	.
=130	=130	=130	=130
4C#X	(>4.b-	4%3r	4%3r
4D	.	.	.
.	16ccLL	.	.
.	16b-JJ)	.	.
4D#X	8aL	.	.
.	8b-J	.	.
=131	=131	=131	=131
!!pagebreak:original
!!pagebreak:original
!!pagebreak:original
!!pagebreak:original
4E	4c#X	4r	(>4.bb-
4c#X	4e	(>4.b-	.
.	.	.	16cccLL
.	.	.	16bb-JJ)
4dn	4f	.	8aaL
.	.	16ccLL	8bb-J
.	.	16b-JJ)	.
=132	=132	=132	=132
4e	4g	8aL	4cc#X
.	.	8b-J	.
4e	4g	4gg	4eee
4f	4a	4ff	4ddd
=133	=133	=133	=133
4g	4b-	[4ee	(>8ccc#XL
.	.	.	16eeeL
.	.	.	16dddJJ)
(>4.g	(>4.b-	(>8eeL]	(>4.ccc#
.	.	16ggL	.
.	.	16ffJJ)	.
.	.	(>8eeL	.
8f)	8a)	8ddJ)	8ddd)
=134	=134	=134	=134
4g	4b-	[4ee	(>8ccc#XL
.	.	.	16eeeL
.	.	.	16dddJJ)
(>4.g	(>4.b-	(>8eeL]	(>4.ccc#
.	.	16ggL	.
.	.	16ffJJ)	.
.	.	(>8eeL	.
8f)	8a)	8ddJ)	8ddd)
=135	=135	=135	=135
4%3r	4%3r	[4ee-X	4%3r
.	.	(>8ee-L]	.
.	.	16ee-L	.
.	.	16ddJJ)	.
.	.	8ddL	.
.	.	8ee-J	.
=136	=136	=136	=136
!!linebreak:original
!!linebreak:original
!!linebreak:original
!!linebreak:original
(>4.e-X	4%3r	4f#X	4%3r
.	.	4g	.
16fLL	.	.	.
16e-JJ)	.	.	.
8dL	.	4g#X	.
8e-J	.	.	.
=137	=137	=137	=137
4F#X	4r	4a	(>4.eee-X
4G	(>4.e-X	4b-	.
.	.	.	16fffLL
.	.	.	16eee-JJ)
4G#X	.	4bn	8dddL
.	16fLL	.	8eee-J
.	16e-JJ)	.	.
=138	=138	=138	=138
4A	8dL	4cc	4ff#X
.	8e-XJ	.	.
4A	4c	4aa	4ccc
4B-	4d	4gg	4bb-
=139	=139	=139	=139
[4c	[4e-X	(>8ff#XL	(>8aaL
.	.	16aaL	16cccL
.	.	16ggJJ)	16bb-JJ)
(>8cL]	(>8e-L]	(>4.ff#	(>4.aa
16AL	16cL	.	.
16B-JJ)	16dJJ)	.	.
(>8cL	(>8e-L	.	.
8B-J)	8dJ)	8gg)	8bb-)
=140	=140	=140	=140
[4c	[4e-X	(>8ff#XL	(>8aaL
.	.	16aaL	16cccL
.	.	16ggJJ)	16bb-JJ)
(>8cL]	(>8e-L]	(>4.ff#	(>4.aa
16AL	16cL	.	.
16B-JJ)	16dJJ)	.	.
(>8cL	(>8e-L	.	.
8B-J)	8dJ)	8gg)	8bb-)
=141	=141	=141	=141
!!linebreak:original
!!linebreak:original
!!linebreak:original
!!linebreak:original
4%3r	(>4.a-X	4%3r	4%3r
.	16b-LL	.	.
.	16a-JJ)	.	.
.	8gL	.	.
.	8a-J	.	.
=142	=142	=142	=142
(>4.A-X	4Bn	4%3r	4%3r
.	4c	.	.
16B-LL	.	.	.
16A-JJ)	.	.	.
8GL	4c#X	.	.
8A-J	.	.	.
=143	=143	=143	=143
4BBn	4d	4r	(>4.aa-X
4C	4e-X	(<4.a-X	.
.	.	.	16bb-LL
.	.	.	16aa-JJ)
4C#X	4en	.	8ggL
.	.	16b-LL	8aa-J
.	.	16a-JJ)	.
=144	=144	=144	=144
4D	4f	8gL	4bn
.	.	8a-XJ	.
4f	4a-X	4dd	4aa-X
4e-X	4g	4cc	4aa-
=145	=145	=145	=145
(>8dL	(>8fL	(>8bnL	[4aa-X
16fL	16a-XL	16ddL	.
16e-XJJ)	16gJJ)	16ccJJ)	.
(>4.d	(>4.f	(>4.b	(>8aa-L]
.	.	.	16ffL
.	.	.	16ggJJ)
.	.	.	(>8aa-L
8e-)	8g)	8cc)	8ggJ)
=146	=146	=146	=146
!!pagebreak:original
!!pagebreak:original
!!pagebreak:original
!!pagebreak:original
(>8dL	(>8fL	(>8bnL	[4aa-X
16fL	16a-XL	16ddL	.
16e-XJJ)	16gJJ)	16ccJJ)	.
(>4.d	(>4.f	(>4.b	(>8aa-L]
.	.	.	16ffL
.	.	.	16ggJJ)
.	.	.	(>8aa-L
8e-)	8g)	8cc)	8ggJ)
=147	=147	=147	=147
4%3r	(>8b-L	(>8dd-XL	4r
.	16gL	16b-XL	.
.	16a-XJJ)	16ccJJ)	.
.	(>4.b-	(>4.dd-	(>8eeeL
.	.	.	16gggL
.	.	.	16fffJJ)
.	.	.	(>8eeeL
.	8a-)	8cc)	8fffJ)
=148	=148	=148	=148
4%3r	(>8b-L	(>8dd-XL	4r
.	16gL	16b-L	.
.	16a-XJJ)	16ccJJ)	.
.	(>4.b-	(>4.dd-	(>8eeeL
.	.	.	16gggL
.	.	.	16fffJJ)
.	.	.	(>8eeeL
.	8a-)	8cc)	8fffJ)
=149	=149	=149	=149
!!linebreak:original
!!linebreak:original
!!linebreak:original
!!linebreak:original
(>8e-XL	(>8g-XL	(>8ccL	[4aa
16cL	16e-XL	16ee-XL	.
16d-XJJ)	16fJJ)	16dd-XJJ)	.
(>4.e-	(>4.g-	(>4.cc	(>8aaL]
.	.	.	16cccL
.	.	.	16bb-JJ)
.	.	.	(>8aaL
8d-)	8f)	8b-)	8bb-J)
=150	=150	=150	=150
(>8e-XL	(>8g-XL	(>8ccL	[4aa
16cL	16e-XL	16ee-XL	.
16d-XJJ)	16fJJ)	16dd-XJJ)	.
(>4.e-	(>4.g-	(>4.cc	(>8aaL]
.	.	.	16cccL
.	.	.	16bb-JJ)
.	.	.	(>8aaL
8d-)	8f)	8b-)	8bb-J)
=151	=151	=151	=151
4BB-	8B-L	8d-XL	[4ddd-X
.	8B-J	8d-J	.
4r	8B-L	8d-L	(>8ddd-L]
.	8B-J	8d-J	16eee-XL
.	.	.	16ddd-JJ)
4r	8B-L	8d-L	8cccL
.	8B-J	8d-J	8ddd-J
=152	=152	=152	=152
!!linebreak:original
!!linebreak:original
!!linebreak:original
!!linebreak:original
4%3r	8B-L	8dnL	[4bb-
.	8B-J	8dJ	.
.	8B-L	8dL	(>8bb-L]
.	8B-J	8dJ	16cccL
.	.	.	16bb-JJ)
.	8B-L	8dL	(>8aaL
.	8B-J	8dJ	8bb-J)
=153	=153	=153	=153
4%3r	8B-L	8dL	[4ff
.	8B-J	8dJ	.
.	8B-L	8dL	(>8ffL]
.	8B-J	8dJ	16gg-XL
.	.	.	16ffJJ)
.	8B-L	8dL	8eeL
.	8B-J	8dJ	8ffJ
=154	=154	=154	=154
4%3r	8B-L	8dL	[4dd-X
.	8B-J	8dJ	.
.	8B-L	8dL	(>8dd-L]
.	8B-J	8dJ	16ee-XL
.	.	.	16dd-JJ)
.	8B-L	8dL	8ccL
.	8B-J	8dJ	8dd-J
=155	=155	=155	=155
2.G-X	8B-L	(>4gg-X	8d-XL
.	8B-J	.	8d-J
.	8B-L	8gg-L)	8d-L
.	8B-J	16aa-XL	8d-J
.	.	16gg-JJ)	.
.	8B-L	8ffL	8d-L
.	8B-J	8gg-J	8d-J
=156	=156	=156	=156
2.D-X	8B-L	[4dd-X	8d-XL
.	8B-J	.	8d-J
.	8B-L	(>8dd-L]	8d-L
.	8B-J	16ee-XL	8d-J
.	.	16dd-JJ)	.
.	8B-L	8ccL	8d-L
.	8B-J	8dd-J	8d-J
=157	=157	=157	=157
!!pagebreak:original
!!pagebreak:original
!!pagebreak:original
!!pagebreak:original
2.BB-	8B-L	[4b-	8d-XL
.	8B-J	.	8d-J
.	8B-L	(>8b-L]	8d-L
.	8B-J	16cc-XL	8d-J
.	.	16b-JJ)	.
.	8B-L	8aL	8d-L
.	8B-J	8b-J	8d-J
=158	=158	=158	=158
4GG-X	8B-L	4g-X	8d-XL
.	8B-J	.	8d-J
4FF	8B-L	4f	8d-L
.	8B-J	.	8d-J
4EE	8B-L	4e	8cL
.	8B-J	.	8cJ
=159	=159	=159	=159
4FF	8A-XL	8cL	[4ff
.	8A-J	8cJ	.
4r	8A-L	8cL	(>8ffL]
.	8A-J	8cJ	16ggL
.	.	.	16ffJJ)
4r	8A-L	8cL	8eeL
.	8A-J	8cJ	8ffJ
=160	=160	=160	=160
4%3r	8A-XL	8cL	[4cc
.	8A-J	8cJ	.
.	8A-L	8cL	(>8ccL]
.	8A-J	8cJ	16dd-XL
.	.	.	16ccJJ)
.	8A-L	8cL	8bnL
.	8A-J	8cJ	8ccJ
=161	=161	=161	=161
!!linebreak:original
!!linebreak:original
!!linebreak:original
!!linebreak:original
4%3r	8A-XL	8cL	[4a-X
.	8A-J	8cJ	.
.	8A-L	8cL	(<8a-L]
.	8A-J	8cJ	16b-XL
.	.	.	16a-JJ)
.	8A-L	8cL	8gL
.	8A-J	8cJ	8a-J
=162	=162	=162	=162
4%3r	8A-XL	8cL	[4f
.	8A-J	8cJ	.
.	8A-L	8cL	(<8fL]
.	8A-J	8cJ	16gL
.	.	.	16fJJ)
.	8A-L	8cL	8eL
.	8A-J	8cJ	8fJ
=163	=163	=163	=163
2.D-X	8A-XL	[4dd-X	8fL
.	8A-J	.	8fJ
.	8A-L	(>8dd-L]	8fL
.	8A-J	16ee-XL	8fJ
.	.	16dd-JJ)	.
.	8A-L	8ccL	8fL
.	8A-J	8dd-J	8fJ
=164	=164	=164	=164
2.AA-X	8A-XL	[4a-X	8fL
.	8A-J	.	8fJ
.	8A-L	(<8a-L]	8fL
.	8A-J	16b-L	8fJ
.	.	16a-JJ)	.
.	8A-L	8gL	8fL
.	8A-J	8a-J	8fJ
=165	=165	=165	=165
2FF	8A-XL	[4f	8fL
.	8A-J	.	8fJ
.	8A-L	(<8fL]	8fL
.	8A-J	16gL	8fJ
.	.	16fJJ)	.
4DD-X	8A-L	8eL	8fL
.	8A-J	8fJ	8fJ
=166	=166	=166	=166
!!linebreak:original
!!linebreak:original
!!linebreak:original
!!linebreak:original
4D-X	8A-XL	4d-X	8fL
.	8A-J	.	8fJ
4C	8A-L	4c	8fL
.	8A-J	.	8fJ
4BBn	8A-L	4Bn	8fL
.	8A-J	.	8fJ
=167	=167	=167	=167
4CC	4G	4c	16eLL
.	.	.	16ccc
.	.	.	16bbn
.	.	.	16aaJJ
8r	[2c	(<2G 2e	16ggLL
.	.	.	16ff
8C	.	.	16ee
.	.	.	16ddJJ
8CL	.	.	[4cc
8CJ	.	.	.
=168	=168	=168	=168
4EE	4c]	4G 4e)	16ccLL]
.	.	.	16ccc
.	.	.	16bbn
.	.	.	16aaJJ
8r	[2c	[2G 2e	16ggLL
.	.	.	16ff
8E	.	.	16ee
.	.	.	16ddJJ
8EL	.	.	[4cc
8EJ	.	.	.
=169	=169	=169	=169
4GG	4c]	4G] 4e	16ccLL]
.	.	.	16ccc
.	.	.	16bbn
.	.	.	16aaJJ
8r	[2c	[2G 2e	16ggLL
.	.	.	16ff
8G	.	.	16ee
.	.	.	16ddJJ
8GL	.	.	16ccLL
.	.	.	16ccc
8GJ	.	.	16bb
.	.	.	16aaJJ
=170	=170	=170	=170
!!pagebreak:original
!!pagebreak:original
!!pagebreak:original
!!pagebreak:original
4C	4c]	4G] 4e	16ggLL
.	.	.	16ff
.	.	.	16ee
.	.	.	16ddJJ
8r	4c	4G 4e	16ccLL
.	.	.	16bn
8c	.	.	16dd
.	.	.	16ccJJ
8cL	4c	4G 4e	16bLL
.	.	.	16cc
8cJ	.	.	16dd
.	.	.	16ccJJ
=171	=171	=171	=171
16CCLL	4c	4G 4e	4b-X
16C	.	.	.
16BBn	.	.	.
16AAJJ	.	.	.
16GGLL	2C [2c	4r	[2ee
16FF	.	.	.
16EE	.	.	.
16DDJJ	.	.	.
[4CC	.	16r	.
.	.	16cLL	.
.	.	16d	.
.	.	16eJJ	.
=172	=172	=172	=172
16CCLL]	4C 4c]	16fLL	4ee]
16C	.	16g	.
16BBn	.	16a	.
16AAJJ	.	16bnJJ	.
16GGLL	[2c 2e	[4cc	[2gg
16FF	.	.	.
16EE	.	.	.
16DDJJ	.	.	.
[4CC	.	16ccLL]	.
.	.	16c	.
.	.	16d	.
.	.	16eJJ	.
=173	=173	=173	=173
!!linebreak:original
!!linebreak:original
!!linebreak:original
!!linebreak:original
16CCLL]	4c] 4e	16fLL	4gg]
16C	.	16g	.
16BBn	.	16a	.
16AAJJ	.	16bnJJ	.
16GGLL	[2c 2g	[4cc	[2bb-
16FF	.	.	.
16EE	.	.	.
16DDJJ	.	.	.
16CCLL	.	16ccLL]	.
16C	.	16c	.
16BB	.	16d	.
16AAJJ	.	16eJJ	.
=174	=174	=174	=174
16GGLL	4c] 4g	16fLL	4bb-]
16FF	.	16g	.
16EE	.	16a	.
16DDJJ	.	16bnJJ	.
16CCLL	4c 4g	16ccLL	4eee
16C	.	16c	.
16BBn	.	16d	.
16AAJJ	.	16eJJ	.
16GGLL	4c 4g	16fLL	4ggg
16FF	.	16g	.
16EE	.	16a	.
16DDJJ	.	16bJJ	.
=175	=175	=175	=175
8CCL	2.c 2.g	[2cc	2.bbb-
16DDL	.	.	.
16EEJJ	.	.	.
16FFLL	.	.	.
16GG	.	.	.
16AA	.	.	.
16BBnJJ	.	.	.
[4C	.	8ccL]	.
.	.	16bnL	.
.	.	16aJJ	.
=176	=176	=176	=176
!!linebreak:original
!!linebreak:original
!!linebreak:original
!!linebreak:original
8CL]	2.C 2.c	16gLL	2.ee
.	.	16f	.
16CL	.	16e	.
16DJJ	.	16dJJ	.
16ELL	.	[4c	.
16F	.	.	.
16G	.	.	.
16AJJ	.	.	.
[4B-X	.	8cL]	.
.	.	16cL	.
.	.	16dJJ	.
=177	=177	=177	=177
8B-L]	8CL 8c	(<16eLL	2.gg
.	.	16f	.
8AJ	8CJ 8c	16g	.
.	.	16aJJ)	.
8GL	8CL 8c	8b-L	.
8FJ	8CJ 8c	8aJ	.
8EL	8CL 8c	8gL	.
8DJ	8CJ 8c	8fJ	.
=178	=178	=178	=178
8CL	8CL 8c	8eL	(>16cLL
.	.	.	16Bn
8DJ	8CJ 8c	8fJ	16c
.	.	.	16dJJ
8CL	8CL 8c	8eL	16eLL
.	.	.	16f
8BB-J	8CJ 8c	8dJ	16g
.	.	.	16aJJ
8AAL	8CL 8c	8cL	16b-XLL
.	.	.	16cc
8GGJ	8CJ 8c	8B-J	16dd
.	.	.	16eeJJ)
=179	=179	=179	=179
(<4.FF	(<4.F	(<4.A 4.f	(>4.ff
16GGLL	16GLL	16gLL	16ggLL
16FFJJ)	16FJJ)	16fJJ)	16ffJJ)
8EEL	8EL	8eL	8eeL
8FFJ	8FJ	8fJ	8ffJ
=180	=180	=180	=180
!!pagebreak:original
!!pagebreak:original
!!pagebreak:original
!!pagebreak:original
4CC	4C	4c	4cc
4r	4r	4r	4r
4r	4r	4r	4r
=181	=181	=181	=181
(<4.FF	(<4.F	(<4.f	(>4.ff
16GGLL	16GLL	16gLL	16ggLL
16FFJJ)	16FJJ)	16fJJ)	16ffJJ)
8EEL	8EL	8eL	8eeL
8FFJ	8FJ	8fJ	8ffJ
=182	=182	=182	=182
4DD	4D	4d	4dd
4r	4r	4r	4r
4r	4r	4r	4r
=183	=183	=183	=183
(>2.D	(>2.d	[2.b-	[4ff
.	.	.	(>8ffL]
.	.	.	16ggL
.	.	.	16ffJJ)
.	.	.	8eeL
.	.	.	8ffJ
=184	=184	=184	=184
2.E)	2.c)	(>2b-]	(>2gg
.	.	4g)	4b-)
=185	=185	=185	=185
(>4F	4c)	(<2f	(>2a
4D	4d	.	.
4BB-)	4G)	8.b-L	8.ddL
.	.	16gJk)	16b-Jk)
=186	=186	=186	=186
2.C	(>8cL	(<2f	(<2a
.	8BnJ	.	.
.	8cL	.	.
.	8BJ	.	.
.	4c)	4e)	4g)
=187	=187	=187	=187
4%3r	4%3r	[4b-	4%3r
.	.	(>8b-L]	.
.	.	16ccL	.
.	.	16b-JJ)	.
.	.	8aL	.
.	.	8b-J	.
=188	=188	=188	=188
!!linebreak:original
!!linebreak:original
!!linebreak:original
!!linebreak:original
4%3r	(>4.a	(>4.cc	[2.ff
.	16b-LL	16dd-XLL	.
.	16aJJ	16ccJJ	.
.	8gL	8b-L	.
.	8aJ)	8ccJ)	.
=189	=189	=189	=189
4%3r	(>4b-	2dd-X	(>4ff]
.	4g-X	.	4bb-)
.	4e-X)	(>8.gg-XL	8.bb-L)
.	.	16ee-XJk)	16gg-XJk)
=190	=190	=190	=190
4%3r	4a-X	(>2dd-X	(>2ff
.	4A-X	.	.
.	4r	4cc)	4ee-X)
=191	=191	=191	=191
(>4D-X	(>2d-X	(<2f	4%3r
4BB-	.	.	.
4GG-X)	8.g-XL	8.b-L	.
.	16e-XJk)	16g-XJk)	.
=192	=192	=192	=192
4AA-X	(>2d-X	(<2f	4%3r
4A-X	.	.	.
4r	4c)	4e-X)	.
=193	=193	=193	=193
4%3r	(>4b-	(>2b-	(>2dd-X
.	4g-X	.	.
.	4e-X)	4cc	8.gg-XL
.	.	.	16eeJk)
=194	=194	=194	=194
4%3r	4f	2b-	(>2dd-X
.	4F	.	.
.	4r	4a)	4cc)
=195	=195	=195	=195
!!linebreak:original
!!linebreak:original
!!linebreak:original
!!linebreak:original
(>4B-	2B-	(<2d-X	4%3r
4G-X	.	.	.
4E-X)	4B-	8.g-XL	.
.	.	16e-XJk)	.
=196	=196	=196	=196
(>2.F	(<2.A-X	(<2.d-X	4r
.	.	.	4dd-X
.	.	.	4dd-
=197	=197	=197	=197
4D-X)	2.F)	2.a-X)	(>8dd-XL
.	.	.	8cc-XJ
4DD-X	.	.	8b-L
.	.	.	8cc-J
4DD-	.	.	8dd-L
.	.	.	8cc-J)
=198	=198	=198	=198
[2.GG-X	(<4.D-X	4g-X	4b-
.	.	4r	4r
.	16E-XLL	.	.
.	16D-JJ)	.	.
.	8CL	4r	4r
.	8D-J	.	.
=199	=199	=199	=199
2.GG-]	2.D-X	4r	4r
.	.	4B-	8r
.	.	.	8b-
.	.	4B-	4b-
=200	=200	=200	=200
[2.AA-X	(<4.D-X	[2.c-X	(>4.dd-X
.	16E-XLL	.	8cc-X)
.	16D-JJ)	.	.
.	8CL	.	8a-XL
.	8D-J	.	8g-XJ
=201	=201	=201	=201
!!pagebreak:original
!!pagebreak:original
!!pagebreak:original
!!pagebreak:original
2.AA-]	2.D-X	4c-]	4f
.	.	4c-X	8r
.	.	.	8cc-X
.	.	4c-	4cc-
=202	=202	=202	=202
[2.BB-	(<4.D-X	[2.d-X	(>4.ee-X
.	16E-XLL	.	8dd-X)
.	16D-JJ)	.	.
.	8CL	.	8b-L
.	8D-J	.	8a-XJ
=203	=203	=203	=203
2.BB-]	2.D-X	4d-]	4g-X
.	.	4d-X	8r
.	.	.	8gg-X
.	.	4d-	4gg-
=204	=204	=204	=204
[2.FF	(<4.D-X	2a-X	(>4.bb-
.	16E-XLL	.	8aa-X)
.	16D-JJ)	.	.
.	8CL	8a-L	8aa-L
.	8D-J	8g-XJ	8gg-XJ
=205	=205	=205	=205
(<4FF]	2.D-X	(<8g-XL	(>8gg-XL
.	.	8fJ)	8ffJ)
4AA-X	.	8fL	8ffL
.	.	8e-XJ	8ee-XJ
4DD-X)	.	8d-XL	8dd-XL
.	.	8c-XJ	8cc-XJ
=206	=206	=206	=206
!!linebreak:original
!!linebreak:original
!!linebreak:original
!!linebreak:original
2.GG-X	(<4.D-X	(<4A	(>4a
.	.	4B-)	4b-)
.	16E-XLL	.	.
.	16D-JJ)	.	.
.	8CL	4B-	4b-
.	8D-J	.	.
=207	=207	=207	=207
2.FF	2.D-X	(<4.B-	(>4.b-
.	.	16cLL	16ccLL
.	.	16B-JJ)	16b-JJ)
.	.	8AL	8aL
.	.	8B-J	8b-J
=208	=208	=208	=208
2EE	(>4.C	2g	2gg
.	16d-XLL	.	.
.	16cJJ)	.	.
4E	8BnL	4g	4b-
.	8cJ	.	.
=209	=209	=209	=209
4F	4c	4c	4a-X
4E-X	4G	4c	4g
4D-X	8A-XL	4Bn	4f
.	8FJ	.	.
=210	=210	=210	=210
4C	4E	4G	16ccLL
.	.	.	16c
.	.	.	16d
.	.	.	16eJJ
4r	8r	8r	16fLL
.	.	.	16g
.	8e	8g	16an
.	.	.	16bnJJ
4r	8eL	8gL	16ccLL
.	.	.	16b
.	8fJ	8a-XJ	16cc
.	.	.	16bJJ
=211	=211	=211	=211
!!linebreak:original
!!linebreak:original
!!linebreak:original
!!linebreak:original
16r	4e	4g	4cc
16CLL	.	.	.
16D	.	.	.
16EJJ	.	.	.
16FLL	8r	8r	8r
16G	.	.	.
16A	8c	8g	8ee
16BnJJ	.	.	.
16cLL	8cL	8gL	8eeL
16B	.	.	.
16c	8cJ	8a-XJ	8ffJ
16BJJ	.	.	.
=212	=212	=212	=212
4c	4c	4g	16eeLL
.	.	.	16c
.	.	.	16d
.	.	.	16eJJ
4r	8r	8r	16fLL
.	.	.	16g
.	8E	8G	16a
.	.	.	16bnJJ
4r	8EL	8GL	16ccLL
.	.	.	16b
.	8FJ	8A-XJ	16cc
.	.	.	16bJJ
=213	=213	=213	=213
16r	4E	4G	4cc
16CLL	.	.	.
16D	.	.	.
16EJJ	.	.	.
16FLL	8r	8r	8r
16G	.	.	.
16A	8c	8g	8ee
16BnJJ	.	.	.
16cLL	8cL	8gL	8eeL
16B	.	.	.
16c	8cJ	8a-XJ	8ffJ
16BJJ	.	.	.
=214	=214	=214	=214
!!pagebreak:original
!!pagebreak:original
!!pagebreak:original
!!pagebreak:original
4c	4c	4g	16eeLL
.	.	.	16c
.	.	.	16d
.	.	.	16eJJ
8r	8r	8r	16fLL
.	.	.	16g
8c	8g	8ee	16a
.	.	.	16bnJJ
8cL	8gL	8eeL	16ccLL
.	.	.	16b
8FJ	8a-XJ	8ffJ	16cc
.	.	.	16bJJ
=215	=215	=215	=215
16cLL	16gLL	16eeLL	16ccLL
16CC	16C	16c	16cc
16DD	16D	16d	16dd
16EEJJ	16EJJ	16eJJ	16eeJJ
16FFLL	16FLL	16fLL	16ffLL
16GG	16G	16g	16gg
16AA	16An	16a	16aa
16BBnJJ	16BnJJ	16bnJJ	16bbnJJ
16CLL	16cLL	16ccLL	16cccLL
16BB	16B	16b	16bb
16C	16c	16cc	16ccc
16BBJJ	16BJJ	16bJJ	16bbJJ
=216	=216	=216	=216
4C	4c	4cc	8ccc
.	.	.	4ccc
4r	2r	4r	.
.	.	.	4ccc
4r	.	4r	.
.	.	.	(>8ccc
=217	=217	=217	=217
4%3r	4%3r	4%3r	8ccc#X)
.	.	.	4ccc#
.	.	.	4ccc#
.	.	.	(>8ccc#
=218	=218	=218	=218
!!linebreak:original
!!linebreak:original
!!linebreak:original
!!linebreak:original
4%3r	4%3r	4%3r	8dddL)
.	.	.	(>8dddJ
.	.	.	8bb-L)
.	.	.	(>8bb-J
.	.	.	8ggL)
.	.	.	(>8ggJ
=219	=219	=219	=219
4%3r	4r	4r	8eeL)
.	.	.	(>8eeJ
.	4r	4r	8ccL)
.	.	.	(>8ccJ
.	8b-L	8ccL	8eeL)
.	(>8b-J	[8ccJ	(>8eeJ
=220	=220	=220	=220
4%3r	8aL)	8ccL]	8ffL)
.	(>8aJ	(>8ccJ	(>8ffJ
.	8gL)	8eeL)	8ggL)
.	(>8gJ	(>8eeJ	(>8ggJ
.	8fL)	8ffL)	8aaL)
.	(>8fJ	(>8ffJ	(>8aaJ
=221	=221	=221	=221
4%3r	4.e)	4aa	4ccc
.	.	8gg)	8bb-)
.	8r	8r	8r
.	8aL	4r	4r
.	(>8aJ	.	.
=222	=222	=222	=222
4%3r	8b-L)	4%3r	4%3r
.	(>8b-J	.	.
.	8gL)	.	.
.	(>8gJ	.	.
.	8eL)	.	.
.	(>8eJ	.	.
=223	=223	=223	=223
4%3r	8c#XL)	4r	4r
.	(>8c#J	.	.
.	8aL)	4r	4r
.	(>8aJ	.	.
.	8gL)	(>4ee	(>4ccc#X
.	(>8gJ	.	.
=224	=224	=224	=224
!!linebreak:original
!!linebreak:original
!!linebreak:original
!!linebreak:original
4%3r	8fL)	4ff	4ddd
.	(>8fJ	.	.
.	8dL)	4aa	4fff
.	(>8dJ	.	.
.	8gL)	4dd)	4bbn)
.	8gJ	.	.
=225	=225	=225	=225
4r	4.c	(>4ff	(>4ddd
8r	.	8ee)	8ccc)
(>8Bn	8r	8r	8r
8cL	4r	4r	4r
8c#XJ	.	.	.
=226	=226	=226	=226
8dL)	4%3r	4%3r	4%3r
(>8dJ	.	.	.
8B-XL)	.	.	.
(>8B-J	.	.	.
8GL)	.	.	.
(>8GJ	.	.	.
=227	=227	=227	=227
8EL)	4r	4r	4r
(>8EJ	.	.	.
8CL)	4r	4r	4r
(>8CJ	.	.	.
8EL)	8gL	8ccL	8bb-L
(>8EJ	(>8gJ	[8ccJ	(>8bb-J
=228	=228	=228	=228
8FL)	8fL)	8ccL]	8aaL)
(>8FJ	(>8fJ	(>8ccJ	(>8aaJ
8GL)	8eL)	8b-L)	8ggL)
(>8GJ	(>8eJ	(>8b-J	(>8ggJ
8AL)	8cL)	8aL)	8ffL)
8AJ	8cJ	8aJ	8ffJ
=229	=229	=229	=229
4.B-	4.d-X	4.g	(>4ff
.	.	.	4ee)
8r	8r	8r	.
4r	4r	8ccL	4r
.	.	(>8ccJ	.
=230	=230	=230	=230
!!pagebreak:original
!!pagebreak:original
!!pagebreak:original
!!pagebreak:original
4%3r	4r	8dd-XL)	4r
.	.	(>8dd-J	.
.	8dd-XL	8b-L)	4r
.	(>8dd-J	(>8b-J	.
.	8b-L)	8gL)	[4ddd-X
.	(>8b-J	(<8gJ	.
=231	=231	=231	=231
4%3r	8gL)	8eL)	(>4ddd-]
.	(>8gJ	(<8eJ	.
.	8a-XL)	8f)	4ccc
.	(>8fJ	4aa-X	.
.	8BnL)	.	4fff)
.	(>8BJ	8aa-	.
=232	=232	=232	=232
4%3r	8cL)	(>2aa-X	(>2fff
.	(>8cJ	.	.
.	8ccL)	.	.
.	(>8ccJ	.	.
.	8cL)	8.bb-L	8.gggL
.	8cJ	.	.
.	.	16ggJk)	16eeeJk)
=233	=233	=233	=233
(>4.c	8fL	8ffL	4fff
.	8FJ	8AnJ	.
.	8FL	8AL	4r
16dLL	8FJ	8AJ	.
16cJJ)	.	.	.
8BnL	8FL	8AL	4r
8cJ	8FJ	8AJ	.
=234	=234	=234	=234
!!linebreak:original
!!linebreak:original
!!linebreak:original
!!linebreak:original
2.c	8FL	8AL	(>4.aa
.	8FJ	8AJ	.
.	8FL	8AL	.
.	8FJ	8AJ	16bb-LL
.	.	.	16aaJJ)
.	8FL	8AL	8ggL
.	8FJ	8AJ	8ffJ
=235	=235	=235	=235
(>4.c	8GL	8B-L	4ee
.	8GJ	8B-J	.
.	8GL	8B-L	4r
16dLL	8GJ	8B-J	.
16cJJ)	.	.	.
8BnL	8GL	8B-L	4r
8cJ	8GJ	8B-J	.
=236	=236	=236	=236
2.c	8GL	8B-L 8e	(>4.bb-
.	8GJ	8B-J 8e	.
.	8GL	8B-L 8e	.
.	8GJ	8B-J 8e	16cccLL
.	.	.	16bb-JJ)
.	8GL	8B-L 8e	8aaL
.	8GJ	8B-J 8e	8ggJ
=237	=237	=237	=237
(>4.c	8AL	8cL	4ff#X
.	8AJ	8cJ 8f#X	.
.	8AL	8cL 8f#	4r
16dLL	8AJ	8cJ 8f#	.
16cJJ)	.	.	.
8BnL	8AL	8cL 8f#	4r
8cJ	8AJ	8cJ 8f#	.
=238	=238	=238	=238
!!linebreak:original
!!linebreak:original
!!linebreak:original
!!linebreak:original
2e-X	8AL	8cL 8f#X	[4eee-X
.	8AJ	8cJ 8f#	.
.	8AL	8cL 8f#	8eee-L]
.	8AJ	8cJ 8f#	(>16dddL
.	.	.	16cccJJ
4c	8AL	8cL 8f#	16bb-LL
.	.	.	16aa
.	8AJ	8cJ 8f#	16gg
.	.	.	16ff#XJJ)
=239	=239	=239	=239
4d	4B-	4g	16ggLL
.	.	.	16dd
.	.	.	16een
.	.	.	16ff#XJJ
4BB-	4d	4B- 4g	16ggLL
.	.	.	16aa
.	.	.	16bb-
.	.	.	16aaJJ
4r	4r	4r	16ggLL
.	.	.	16dd
.	.	.	16ee
.	.	.	16ff#JJ
=240	=240	=240	=240
4%3r	4%3r	4%3r	16ggLL
.	.	.	16aa
.	.	.	16bb-
.	.	.	16aaJJ
.	.	.	16ggLL
.	.	.	16dd
.	.	.	16ee
.	.	.	16ff#XJJ
.	.	.	16ggLL
.	.	.	16aa
.	.	.	16bb-
.	.	.	16aaJJ
=241	=241	=241	=241
!!pagebreak:original
!!pagebreak:original
!!pagebreak:original
!!pagebreak:original
4r	4r	4r	16ggLL
.	.	.	16dd
.	.	.	16ee
.	.	.	16ff#XJJ
4r	4r	4r	16ggLL
.	.	.	16aa
.	.	.	16bb-
.	.	.	16aaJJ
16r	16r	16r	16ggLL
16DLL	16DLL	16dLL	16dd
16E	16E	16e	16ee
16F#XJJ	16F#XJJ	16f#XJJ	16ff#JJ
=242	=242	=242	=242
16GLL	16GLL	16gLL	16ggLL
16A	16A	16a	16aa
16B-	16B-	16b-	16bb-
16cJJ	16cJJ	16ccJJ	16cccJJ
16dLL	16dLL	16ddLL	16dddLL
16c	16c	16cc	16ccc
16B-	16B-	16b-	16bb-
16AJJ	16AJJ	16aJJ	16aaJJ
16GLL	16GLL	16gLL	16ggLL
16Fn	16Fn	16fn	16ffn
16E	16E	16e	16ee
16DJJ	16DJJ	16dJJ	16ddJJ
=243	=243	=243	=243
4.C	4.C	4.c	2.cc
(>16DLL	(<16DLL	(<16dLL	.
16EJJ	16EJJ	16eJJ	.
16FLL	16FLL	16fLL	.
16G	16G	16g	.
16A	16A	16a	.
16B-JJ)	16B-JJ)	16b-JJ)	.
=244	=244	=244	=244
8cL	8cL	8ccL	2.gg
8CJ	8B-J	8eJ	.
8CL	8B-L	8eL	.
8CJ	8B-J	8eJ	.
8CL	8B-L	8eL	.
8CJ	8B-J	8eJ	.
=245	=245	=245	=245
!!linebreak:original
!!linebreak:original
!!linebreak:original
!!linebreak:original
4F	4A	4f	4ff
4r	(<4.A	4.c	(<4.f
4r	.	.	.
.	8G)	8c	8e)
=246	=246	=246	=246
4%3r	(<8GL	(<8cL	(<8eL
.	8EJ)	8gJ)	8b-J)
.	(<8EL	(<8gL	(<8b-L
.	8FJ)	8fJ)	8aJ)
.	(<8FL	8fL	(>8aL
.	8B-J)	8fJ	8ddJ)
=247	=247	=247	=247
4%3r	(<8B-L	8fL	(>8ddL
.	8AJ)	8fJ	8ccJ)
.	(>8AL	(<8fL	(>8ccL
.	8aJ)	8ccJ)	8ffJ)
.	(>8aL	(>8ccL	(>8ffL
.	8gJ)	8b-J)	8eeJ)
=248	=248	=248	=248
4%3r	(>8gL	(<8b-L	(>8eeL
.	8eJ)	8gJ)	8bb-J)
.	4e	4g	4bb-
.	4r	4r	4r
=249	=249	=249	=249
4%3r	4%3r	4%3r	4%3r
=250	=250	=250	=250
2.F	2.c	2.f	[4a
.	.	.	(<8aL]
.	.	.	16b-L
.	.	.	16aJJ)
.	.	.	8gL
.	.	.	8aJ
=251	=251	=251	=251
[2.BBn	[2.G	[2.f	[2.dd
=252	=252	=252	=252
(<4BB]	(<4G]	4f]	(>4dd]
4C)	4A)	4f	4cc)
4CC	4G	4B-	4e
=253	=253	=253	=253
!!linebreak:original
!!linebreak:original
!!linebreak:original
!!linebreak:original
4FF	4F	4A	4f
4r	(>4.a	(>4.cc	(>4.ff
4r	.	.	.
.	8g)	8b-)	8ee)
=254	=254	=254	=254
4%3r	(>8gL	(<8b-L	(>8eeL
.	8eJ)	8gJ)	8bb-J)
.	(>8eL	(<8gL	(>8bb-L
.	8fJ)	8aJ)	8aaJ)
.	(>8fL	(>8aL	(>8aaL
.	8b-J)	8ffJ)	8dddJ)
=255	=255	=255	=255
4%3r	(>8b-L	8ffL	(>8dddL
.	8aJ)	8ffJ	8cccJ)
.	(>8AL	(>8ffL	(>8cccL
.	8aJ)	8ccJ)	8fffJ)
.	(>8aL	(>8ccL	(>8fffL
.	8gJ)	8b-J)	8eeeJ)
=256	=256	=256	=256
4%3r	(>8gL	(>8b-L	(>8eeeL
.	8eJ)	8ggJ)	8bbb-J)
.	4e	4gg	4bbb-
.	4r	4r	4r
=257	=257	=257	=257
4%3r	4%3r	4%3r	4%3r
=258	=258	=258	=258
2.F	2.f	2.c	2.c-X 2.a-X
=259	=259	=259	=259
2.D-X	2.d-X	2.f	2.c-X 2.a-X
=260	=260	=260	=260
2BBn	2Bn	2d 2f	2c-X 2a-X
4BB-X	4B-X	4d 4f	4c- 4a-
=261	=261	=261	=261
!!pagebreak:original
!!pagebreak:original
!!pagebreak:original
!!pagebreak:original
4AA	4A	4d 4f	4cn 4an
4GG	4d	4g	4b-
4C	4B-	4e	4g
=262	=262	=262	=262
(>4.F	8AL	8AL 8f	4f
.	8cJ	8AJ 8f	.
.	8cL	8AL 8f	4r
16GLL	8cJ	8AJ 8f	.
16FJJ)	.	.	.
8EL	8cL	8AL 8f	4r
8FJ	8cJ	8AJ 8f	.
=263	=263	=263	=263
4FF	8cL	8AL 8f	4r
.	8cJ	8AJ 8f	.
4r	8cL	8AL 8f	4a
.	8cJ	8AJ 8f	.
4r	8cL	8AL 8f	4a
.	8cJ	8AJ 8f	.
=264	=264	=264	=264
(>4.F	8cL	8B-L 8g	(>4cc
.	8cJ	8B-J 8g	.
.	8cL	8B-L 8g	4b-)
16GLL	8cJ	8B-J 8g	.
16FJJ)	.	.	.
8EL	8cL	8B-L 8g	4r
8FJ	8cJ	8B-J 8g	.
=265	=265	=265	=265
4FF	8cL	8B-L 8g	4r
.	8cJ	8B-J 8g	.
4r	8cL	8B-L 8g	4ee
.	8cJ	8B-J 8g	.
4r	8cL	8B-L 8g	4ee
.	8cJ	8B-J 8g	.
=266	=266	=266	=266
!!linebreak:original
!!linebreak:original
!!linebreak:original
!!linebreak:original
(>16GLL	8cL	8AL 8f	(>8ffL
16F	.	.	.
16E	8cJ	8fJ 8a	8aaJ)
16FJJ)	.	.	.
(>16GLL	8cL	8fL 8a	4cc
16F	.	.	.
16E	8cJ	8fJ 8a	.
16FJJ)	.	.	.
(>16GLL	8cL	8fL 8a	4r
16F	.	.	.
16E	8cJ	8fJ 8a	.
16FJJ)	.	.	.
=267	=267	=267	=267
4FF	8cL	8fL 8a	(>16bb-LL
.	.	.	16aa
.	8cJ	8fJ 8a	16gg
.	.	.	16aaJJ)
4r	8cL	8fL 8a	(>16bb-LL
.	.	.	16aa
.	8cJ	8fJ 8a	16gg
.	.	.	16aaJJ)
4r	8cL	8fL 8a	(>16bb-LL
.	.	.	16aa
.	8cJ	8fJ 8a	16gg
.	.	.	16aaJJ)
=268	=268	=268	=268
(>16GLL	8cL	8gL 8b-	(>4ccc
16F	.	.	.
16E	8cJ	8gJ 8b-	.
16FJJ)	.	.	.
(>16GLL	8cL	8gL 8b-	4bb-)
16F	.	.	.
16E	8cJ	8gJ 8b-	.
16FJJ)	.	.	.
(>16GLL	8cL	8gL 8b-	4r
16F	.	.	.
16E	8cJ	8gJ 8b-	.
16FJJ)	.	.	.
=269	=269	=269	=269
!!linebreak:original
!!linebreak:original
!!linebreak:original
!!linebreak:original
4FF	8cL	8gL 8b-	(>16fffLL
.	.	.	16eee
.	8cJ	8gJ 8b-	16ddd
.	.	.	16eeeJJ)
4r	8cL	8gL 8b-	(>16fffLL
.	.	.	16eee
.	8cJ	8gJ 8b-	16ddd
.	.	.	16eeeJJ)
4r	8cL	8gL 8b-	(>16fffLL
.	.	.	16eee
.	8cJ	8gJ 8b-	16ddd
.	.	.	16eeeJJ)
=270	=270	=270	=270
4FF	4c	4f 4a	8fffL
.	.	.	16eeeL
.	.	.	16dddJJ
4F	4c	4f 4a	16cccLL
.	.	.	16bb-
.	.	.	16aa
.	.	.	16ggJJ
4r	4r	4r	16ffLL
.	.	.	16ccc
.	.	.	16bb-
.	.	.	16aaJJ
=271	=271	=271	=271
4%3r	4%3r	4%3r	16ggLL
.	.	.	16ff
.	.	.	16ee
.	.	.	16ddJJ
.	.	.	16ccLL
.	.	.	16aa
.	.	.	16gg
.	.	.	16ffJJ
.	.	.	16eeLL
.	.	.	16dd
.	.	.	16cc
.	.	.	16b-JJ
=272	=272	=272	=272
!!pagebreak:original
!!pagebreak:original
!!pagebreak:original
!!pagebreak:original
16r	16r	16r	16aLL
16FLL	16fLL	16ffLL	16ff
16E	16e	16ee	16ee
16DJJ	16dJJ	16ddJJ	16ddJJ
16CLL	16cLL	16ccLL	16ccLL
16BB-	16B-	16b-	16b-
16AA	16A	16a	16a
16GGJJ	16GJJ	16gJJ	16gJJ
16FFLL	16FLL	16fLL	16fLL
16F	16f	16ff	16ff
16E	16e	16ee	16ee
16DJJ	16dJJ	16ddJJ	16ddJJ
=273	=273	=273	=273
16CLL	16cLL	16ccLL	16ccLL
16BB-	16B-	16b-	16b-
16AA	16A	16a	16a
16GGJJ	16GJJ	16gJJ	16gJJ
(<16FFLL	(<16FLL	(<16fLL	(<16fLL
16EE	16E	16e	16e
16FF	16F	16f	16f
16EEJJ	16EJJ	16eJJ	16eJJ
16FFLL	16FLL	16fLL	16fLL
16EE	16E	16e	16e
16FF	16F	16f	16f
16EEJJ)	16EJJ)	16eJJ)	16eJJ)
=274	=274	=274	=274
4FF	4F	4f	4f
4GG	4G	4g	4g
4AA	4A	4a	4a
=275	=275	=275	=275
4BB-	4B-	4B-	4b-
4C	4c	4c	4cc
4D	4d	4d	4dd
=276	=276	=276	=276
[2.E-X	[2.e-X	[2.e-X	[2.ee-X
=277	=277	=277	=277
2.E-;]	2.e-;]	2.e-;]	2.ee-;]
=278	=278	=278	=278
4DD	4D	4d	4d
4EEn	4En	4en	4en
4FF#X	4F#X	4f#X	4f#X
=279	=279	=279	=279
!!linebreak:original
!!linebreak:original
!!linebreak:original
!!linebreak:original
4GG	4G	4G	4g
4AA	4A	4A	4a
4BB-	4B-	4B-	4b-
=280	=280	=280	=280
[2.C	[2.c	[2.c	[2.cc
=281	=281	=281	=281
2.C;]	2.c;]	2.c;]	2.cc]
=282	=282	=282	=282
4%3r	4%3r	4G	8ffL
.	.	.	(>16ggL
.	.	.	16ffJJ
.	.	4A	8eeL)
.	.	.	(>16ffL
.	.	.	16eeJJ
.	.	4Bn	8ddL)
.	.	.	(>16eeL
.	.	.	16ddJJ
=283	=283	=283	=283
4%3r	4%3r	4c	8ccL)
.	.	.	(>16ddL
.	.	.	16ccJJ
.	.	4d	8bnL)
.	.	.	(>16ccL
.	.	.	16bJJ
.	.	4e	8aL)
.	.	.	(<16bL
.	.	.	16aJJ)
=284	=284	=284	=284
4%3r	4%3r	(<4f	(<4.g
.	.	4d	.
.	.	.	16aLL
.	.	.	16gJJ)
.	.	4Bn)	8f#XL
.	.	.	8gJ
=285	=285	=285	=285
!!linebreak:original
!!linebreak:original
!!linebreak:original
!!linebreak:original
(>4BBn	(<4.G	4G	(>4ddd
4D	.	4r	4bbn
.	16ALL	.	.
.	16GJJ)	.	.
4GG)	8F#XL	4r	4ffn)
.	8GJ	.	.
=286	=286	=286	=286
4C	4C	8b-L	4ee
.	.	(>16ccL	.
.	.	16b-JJ	.
4r	4D	8aL)	4r
.	.	(<16b-L	.
.	.	16aJJ	.
4r	4E	8gL)	4r
.	.	(<16aL	.
.	.	16gJJ	.
=287	=287	=287	=287
4%3r	4F	8fL)	4%3r
.	.	(<16gL	.
.	.	16fJJ	.
.	4G	8eL)	.
.	.	(<16fL	.
.	.	16eJJ	.
.	4A	8dL)	.
.	.	(<16eL	.
.	.	16dJJ)	.
=288	=288	=288	=288
4%3r	(<4B-	(<4.c	4%3r
.	4G	.	.
.	.	16dLL	.
.	.	16cJJ)	.
.	4E)	8BnL	.
.	.	8cJ	.
=289	=289	=289	=289
(<4CC	4.C	4b-X	(>4gg
4EE	.	4r	4ee
.	(>16dLL	.	.
.	16cJJ)	.	.
4GG)	8BnL	4r	4b-)
.	8cJ	.	.
=290	=290	=290	=290
!!pagebreak:original
!!pagebreak:original
!!pagebreak:original
!!pagebreak:original
4C	(>4c	(<4.c	4f 4a
4r	4A	.	4r
.	.	16dLL	.
.	.	16cJJ)	.
4r	4F)	8BnL	4r
.	.	8cJ	.
=291	=291	=291	=291
(<4CC	4.C	4a	(>4aa
4FF	.	4r	4ff
.	(>16dLL	.	.
.	16cJJ)	.	.
4AA)	8BnL	4r	4cc)
.	8cJ	.	.
=292	=292	=292	=292
4C	(>4g	4%3r	(>4.b-
4r	4e	.	.
.	.	.	16ccLL
.	.	.	16b-JJ)
4r	4c)	.	8aL
.	.	.	8b-J
=293	=293	=293	=293
(<4CC	(>4ee	(>4gg	(>4bb-
4C	4b-	4ee	4gg
4C#X)	4g)	4b-)	4ee)
=294	=294	=294	=294
2.D	2.f	2.a	(>4.ff
.	.	.	16ggLL
.	.	.	16ffJJ)
.	.	.	8eeL
.	.	.	8ffJ
=295	=295	=295	=295
2.E	2.B-	2.cc#X	2.gg
=296	=296	=296	=296
2.F#X	2.e-X	2.ccn	[4aa
.	.	.	(>8aaL]
.	.	.	16bb-L
.	.	.	16aaJJ)
.	.	.	8ggL
.	.	.	8aaJ
=297	=297	=297	=297
!!linebreak:original
!!linebreak:original
!!linebreak:original
!!linebreak:original
2.G	2.d	2.b-	2.bb-
=298	=298	=298	=298
2.A	2.g-X	2.ee-X	[4ccc
.	.	.	(>8cccL]
.	.	.	16dddL
.	.	.	16cccJJ)
.	.	.	8bb-L
.	.	.	8cccJ
=299	=299	=299	=299
2.Bn	2.f	2.a-X	2.ddd
=300	=300	=300	=300
2.c	(>4.f	(<4.an	4r
.	.	.	4cc
.	16gLL	16b-LL	.
.	16fJJ)	16aJJ)	.
.	8eL	8gL	4cc
.	8fJ	8aJ	.
=301	=301	=301	=301
2C	(>2g	(>2b-	(>4.cc
.	.	.	16ddLL
.	.	.	16ccJJ)
4CC	4E)	4G)	8bnL
.	.	.	8ccJ
=302	=302	=302	=302
(<4.FF	4F	4A	4f
.	4C	4A	4r
16GGLL	.	.	.
16FFJJ)	.	.	.
8EEL	4C	4A	4r
8FFJ	.	.	.
=303	=303	=303	=303
!!linebreak:original
!!linebreak:original
!!linebreak:original
!!linebreak:original
2FF	(<2.D-X	2.B-	(<16fLL
.	.	.	16e
.	.	.	16d
.	.	.	16eJJ
.	.	.	16fLL
.	.	.	16e
.	.	.	16d
.	.	.	16eJJ
4r	.	.	16fLL
.	.	.	16e
.	.	.	16d
.	.	.	16eJJ)
=304	=304	=304	=304
(<4.FF	2.C	4A	4f
.	.	4f	4a
16GGLL	.	.	.
16FFJJ)	.	.	.
8EEL	.	4f	4a
8FFJ	.	.	.
=305	=305	=305	=305
[2.FF	2.D)	(<16fLL	2.b-
.	.	16e	.
.	.	16d	.
.	.	16eJJ	.
.	.	16fLL	.
.	.	16e	.
.	.	16d	.
.	.	16eJJ	.
.	.	16fLL	.
.	.	16e	.
.	.	16d	.
.	.	16eJJ)	.
=306	=306	=306	=306
4FF]	4C	4f	4a
4r	4f	8r	8r
.	.	(<16b-LL	(>16dd-XLL
.	.	16aJJ)	16ccJJ)
4r	4f	8gL	8b-L
.	.	8aJ	8ccJ
=307	=307	=307	=307
!!pagebreak:original
!!pagebreak:original
!!pagebreak:original
!!pagebreak:original
4%3r	(>16fLL	2.b-	2.dd-X
.	16e	.	.
.	16d	.	.
.	16eJJ	.	.
.	16fLL	.	.
.	16e	.	.
.	16d	.	.
.	16eJJ	.	.
.	16fLL	.	.
.	16e	.	.
.	16d	.	.
.	16eJJ)	.	.
=308	=308	=308	=308
4r	4f	4a	4cc
4FF	4cc	8r	8r
.	.	(>16ggLL	(>16bb-LLyy
.	.	16ffJJ)	16aaJJ)
4FF	4cc	8eeL	8ggL
.	.	8ffJ	8aaJ
=309	=309	=309	=309
(<16FFLL	2.dd-X	2.gg	2.bb-
16EE	.	.	.
16DD	.	.	.
16EEJJ)	.	.	.
(<16FFLL	.	.	.
16EE	.	.	.
16DD	.	.	.
16EEJJ)	.	.	.
(<16FFLL	.	.	.
16EE	.	.	.
16DD	.	.	.
16EEJJ)	.	.	.
=310	=310	=310	=310
4FF	4cc	4ff	(>8aaL
.	.	.	16bb-L
.	.	.	16aaJJ)
4r	4r	4r	8gg#XL
.	.	.	8aaJ
8EL	8eL	8eeL	8eeL
8FJ	8fJ	8ffJ	8ffJ
=311	=311	=311	=311
!!linebreak:original
!!linebreak:original
!!linebreak:original
!!linebreak:original
4C	4c	4cc	(>8ccL
.	.	.	16ddL
.	.	.	16ccJJ)
4r	4r	4r	8bnL
.	.	.	8ccJ
8GG#XL	8G#XL	8g#XL	8g#XL
8AAJ	8AJ	8aJ	8aJ
=312	=312	=312	=312
4FF	4F	4f	(<8fL
.	.	.	16gnL
.	.	.	16fJJ)
4r	4r	4r	8eL
.	.	.	8fJ
8CCL	8CL	8cL	8cL
8EEJ	8EJ	8eJ	8eJ
=313	=313	=313	=313
4FF	4F	4f	4f
4FF	4F	4A 4f	4a 4ff
4r	4r	4r	4r
==	==	==	==
*-	*-	*-	*-
!!!system-decoration: [(s1,s2,s3,s4)]
!!!RDF**kern: > = above
!!!RDF**kern: < = below
